P3
64 64
100
0 0 100 0 0 100 0 0 100 0 0 100 0 0 100 0 0 100 0 0 100 0 0 100 0 0 100 0 0 100 0 0 100 0 0 100 0 0 100 0 0 100 0 0 100 0 0 100 0 0 100 0 0 100 0 0 100 0 0 100 0 0 100 0 0 100 0 0 100 0 0 100 0 0 100 0 0 100 0 0 100 0 0 100 0 0 100 0 0 100 0 0 100 0 0 100 0 0 100 0 0 100 0 0 100 0 0 100 0 0 100 0 0 100 0 0 100 0 0 100 0 0 100 0 0 100 0 0 100 0 0 100 0 0 100 0 0 100 0 0 100 0 0 100 0 0 100 0 0 100 0 0 100 0 0 100 0 0 100 0 0 100 0 0 100 0 0 100 0 0 100 0 0 100 0 0 100 0 0 100 0 0 100 0 0 100 0 0 100 0 0 100 
0 0 100 16 0 83 20 0 79 22 0 77 24 0 75 24 0 75 25 0 74 25 0 74 26 0 73 26 0 73 26 0 73 26 0 73 26 0 73 26 0 73 27 0 72 27 0 72 27 0 72 27 0 72 27 0 72 27 0 72 27 0 72 27 0 72 27 0 72 27 0 72 27 0 72 27 0 72 27 0 72 27 0 72 27 0 72 27 0 72 27 0 72 27 0 72 27 0 72 27 0 72 27 0 72 27 0 72 27 0 72 27 0 72 27 0 72 27 0 72 27 0 72 27 0 72 27 0 72 27 0 72 27 0 72 27 0 72 27 0 72 27 0 72 27 0 72 27 0 72 26 0 73 26 0 73 26 0 73 26 0 73 26 0 73 26 0 73 25 0 74 25 0 74 24 0 75 24 0 75 22 0 77 20 0 79 16 0 83 0 0 100 
0 0 100 6 0 93 12 0 87 15 0 84 17 0 82 18 0 81 19 0 80 20 0 79 20 0 79 21 0 78 21 0 78 21 0 78 21 0 78 22 0 77 22 0 77 22 0 77 22 0 77 22 0 77 22 0 77 22 0 77 22 0 77 22 0 77 23 0 76 23 0 76 23 0 76 23 0 76 23 0 76 23 0 76 23 0 76 23 0 76 23 0 76 23 0 76 23 0 76 23 0 76 23 0 76 23 0 76 23 0 76 23 0 76 23 0 76 23 0 76 23 0 76 23 0 76 22 0 77 22 0 77 22 0 77 22 0 77 22 0 77 22 0 77 22 0 77 22 0 77 22 0 77 21 0 78 21 0 78 21 0 78 21 0 78 20 0 79 20 0 79 19 0 80 18 0 81 17 0 82 15 0 84 12 0 87 6 0 93 0 0 100 
0 0 100 5 0 94 9 0 90 12 0 87 14 0 85 16 0 83 17 0 82 18 0 81 19 0 80 19 0 80 20 0 79 20 0 79 21 0 78 21 0 78 21 0 78 21 0 78 22 0 77 22 0 77 22 0 77 22 0 77 22 0 77 22 0 77 22 0 77 22 0 77 22 0 77 22 0 77 22 0 77 23 0 76 23 0 76 23 0 76 23 0 76 23 0 76 23 0 76 23 0 76 23 0 76 23 0 76 23 0 76 22 0 77 22 0 77 22 0 77 22 0 77 22 0 77 22 0 77 22 0 77 22 0 77 22 0 77 22 0 77 22 0 77 21 0 78 21 0 78 21 0 78 21 0 78 20 0 79 20 0 79 19 0 80 19 0 80 18 0 81 17 0 82 16 0 83 14 0 85 12 0 87 9 0 90 5 0 94 0 0 100 
0 0 100 3 0 96 7 0 92 10 0 89 12 0 87 14 0 85 15 0 84 16 0 83 17 0 82 18 0 81 18 0 81 19 0 80 19 0 80 20 0 79 20 0 79 20 0 79 21 0 78 21 0 78 21 0 78 21 0 78 21 0 78 21 0 78 21 0 78 22 0 77 22 0 77 22 0 77 22 0 77 22 0 77 22 0 77 22 0 77 22 0 77 22 0 77 22 0 77 22 0 77 22 0 77 22 0 77 22 0 77 22 0 77 22 0 77 22 0 77 22 0 77 21 0 78 21 0 78 21 0 78 21 0 78 21 0 78 21 0 78 21 0 78 20 0 79 20 0 79 20 0 79 19 0 80 19 0 80 18 0 81 18 0 81 17 0 82 16 0 83 15 0 84 14 0 85 12 0 87 10 0 89 7 0 92 3 0 96 0 0 100 
0 0 100 3 0 96 6 0 93 8 0 91 10 0 89 12 0 87 13 0 86 15 0 84 16 0 83 16 0 83 17 0 82 18 0 81 18 0 81 19 0 80 19 0 80 19 0 80 20 0 79 20 0 79 20 0 79 20 0 79 20 0 79 21 0 78 21 0 78 21 0 78 21 0 78 21 0 78 21 0 78 21 0 78 21 0 78 21 0 78 21 0 78 21 0 78 21 0 78 21 0 78 21 0 78 21 0 78 21 0 78 21 0 78 21 0 78 21 0 78 21 0 78 21 0 78 21 0 78 20 0 79 20 0 79 20 0 79 20 0 79 20 0 79 19 0 80 19 0 80 19 0 80 18 0 81 18 0 81 17 0 82 16 0 83 16 0 83 15 0 84 13 0 86 12 0 87 10 0 89 8 0 91 6 0 93 3 0 96 0 0 100 
0 0 100 2 0 97 5 0 94 7 0 92 9 0 90 11 0 88 12 0 87 13 0 86 14 0 85 15 0 84 16 0 83 17 0 82 17 0 82 18 0 81 18 0 81 18 0 81 19 0 80 19 0 80 19 0 80 19 0 80 20 0 79 20 0 79 20 0 79 20 0 79 20 0 79 20 0 79 20 0 79 20 0 79 21 0 78 21 0 78 21 0 78 21 0 78 21 0 78 21 0 78 21 0 78 21 0 78 20 0 79 20 0 79 20 0 79 20 0 79 20 0 79 20 0 79 20 0 79 20 0 79 19 0 80 19 0 80 19 0 80 19 0 80 18 0 81 18 0 81 18 0 81 17 0 82 17 0 82 16 0 83 15 0 84 14 0 85 13 0 86 12 0 87 11 0 88 9 0 90 7 0 92 5 0 94 2 0 97 0 0 100 
0 0 100 2 0 97 4 0 95 6 0 93 8 0 91 9 0 90 11 0 88 12 0 87 13 0 86 14 0 85 15 0 84 15 0 84 16 0 83 17 0 82 17 0 82 17 0 82 18 0 81 18 0 81 18 0 81 19 0 80 19 0 80 19 0 80 19 0 80 19 0 80 20 0 79 20 0 79 20 0 79 20 0 79 20 0 79 20 0 79 20 0 79 20 0 79 20 0 79 20 0 79 20 0 79 20 0 79 20 0 79 20 0 79 20 0 79 20 0 79 19 0 80 19 0 80 19 0 80 19 0 80 19 0 80 18 0 81 18 0 81 18 0 81 17 0 82 17 0 82 17 0 82 16 0 83 15 0 84 15 0 84 14 0 85 13 0 86 12 0 87 11 0 88 9 0 90 8 0 91 6 0 93 4 0 95 2 0 97 0 0 100 
0 0 100 1 0 98 3 0 96 5 0 94 7 0 92 8 0 91 10 0 89 11 0 88 12 0 87 13 0 86 14 0 85 14 0 85 15 0 84 16 0 83 16 0 83 17 0 82 17 0 82 17 0 82 18 0 81 18 0 81 18 0 81 18 0 81 19 0 80 19 0 80 19 0 80 19 0 80 19 0 80 19 0 80 19 0 80 19 0 80 19 0 80 19 0 80 19 0 80 19 0 80 19 0 80 19 0 80 19 0 80 19 0 80 19 0 80 19 0 80 19 0 80 19 0 80 18 0 81 18 0 81 18 0 81 18 0 81 17 0 82 17 0 82 17 0 82 16 0 83 16 0 83 15 0 84 14 0 85 14 0 85 13 0 86 12 0 87 11 0 88 10 0 89 8 0 91 7 0 92 5 0 94 3 0 96 1 0 98 0 0 100 
0 0 100 1 0 98 3 0 96 5 0 94 6 0 93 8 0 91 9 0 90 10 0 89 11 0 88 12 0 87 13 0 86 14 0 85 14 0 85 15 0 84 15 0 84 16 0 83 16 0 83 17 0 82 17 0 82 17 0 82 17 0 82 18 0 81 18 0 81 18 0 81 18 0 81 18 0 81 19 0 80 19 0 80 19 0 80 19 0 80 19 0 80 19 0 80 19 0 80 19 0 80 19 0 80 19 0 80 19 0 80 19 0 80 18 0 81 18 0 81 18 0 81 18 0 81 18 0 81 17 0 82 17 0 82 17 0 82 17 0 82 16 0 83 16 0 83 15 0 84 15 0 84 14 0 85 14 0 85 13 0 86 12 0 87 11 0 88 10 0 89 9 0 90 8 0 91 6 0 93 5 0 94 3 0 96 1 0 98 0 0 100 
0 0 100 1 0 98 3 0 96 4 0 95 6 0 93 7 0 92 8 0 91 9 0 90 10 0 89 11 0 88 12 0 87 13 0 86 13 0 86 14 0 85 15 0 84 15 0 84 15 0 84 16 0 83 16 0 83 17 0 82 17 0 82 17 0 82 17 0 82 18 0 81 18 0 81 18 0 81 18 0 81 18 0 81 18 0 81 18 0 81 18 0 81 18 0 81 18 0 81 18 0 81 18 0 81 18 0 81 18 0 81 18 0 81 18 0 81 18 0 81 18 0 81 17 0 82 17 0 82 17 0 82 17 0 82 16 0 83 16 0 83 15 0 84 15 0 84 15 0 84 14 0 85 13 0 86 13 0 86 12 0 87 11 0 88 10 0 89 9 0 90 8 0 91 7 0 92 6 0 93 4 0 95 3 0 96 1 0 98 0 0 100 
0 0 100 1 0 98 2 0 97 4 0 95 5 0 94 6 0 93 7 0 92 9 0 90 10 0 89 10 0 89 11 0 88 12 0 87 13 0 86 13 0 86 14 0 85 14 0 85 15 0 84 15 0 84 16 0 83 16 0 83 16 0 83 16 0 83 17 0 82 17 0 82 17 0 82 17 0 82 17 0 82 17 0 82 18 0 81 18 0 81 18 0 81 18 0 81 18 0 81 18 0 81 18 0 81 18 0 81 17 0 82 17 0 82 17 0 82 17 0 82 17 0 82 17 0 82 16 0 83 16 0 83 16 0 83 16 0 83 15 0 84 15 0 84 14 0 85 14 0 85 13 0 86 13 0 86 12 0 87 11 0 88 10 0 89 10 0 89 9 0 90 7 0 92 6 0 93 5 0 94 4 0 95 2 0 97 1 0 98 0 0 100 
0 0 100 1 0 98 2 0 97 3 0 96 5 0 94 6 0 93 7 0 92 8 0 91 9 0 90 10 0 89 11 0 88 11 0 88 12 0 87 13 0 86 13 0 86 14 0 85 14 0 85 15 0 84 15 0 84 15 0 84 16 0 83 16 0 83 16 0 83 16 0 83 17 0 82 17 0 82 17 0 82 17 0 82 17 0 82 17 0 82 17 0 82 17 0 82 17 0 82 17 0 82 17 0 82 17 0 82 17 0 82 17 0 82 17 0 82 17 0 82 16 0 83 16 0 83 16 0 83 16 0 83 15 0 84 15 0 84 15 0 84 14 0 85 14 0 85 13 0 86 13 0 86 12 0 87 11 0 88 11 0 88 10 0 89 9 0 90 8 0 91 7 0 92 6 0 93 5 0 94 3 0 96 2 0 97 1 0 98 0 0 100 
0 0 100 1 0 98 2 0 97 3 0 96 4 0 95 5 0 94 6 0 93 7 0 92 8 0 91 9 0 90 10 0 89 11 0 88 11 0 88 12 0 87 13 0 86 13 0 86 14 0 85 14 0 85 14 0 85 15 0 84 15 0 84 15 0 84 16 0 83 16 0 83 16 0 83 16 0 83 16 0 83 16 0 83 17 0 82 17 0 82 17 0 82 17 0 82 17 0 82 17 0 82 17 0 82 17 0 82 16 0 83 16 0 83 16 0 83 16 0 83 16 0 83 16 0 83 15 0 84 15 0 84 15 0 84 14 0 85 14 0 85 14 0 85 13 0 86 13 0 86 12 0 87 11 0 88 11 0 88 10 0 89 9 0 90 8 0 91 7 0 92 6 0 93 5 0 94 4 0 95 3 0 96 2 0 97 1 0 98 0 0 100 
0 0 100 1 0 98 2 0 97 3 0 96 4 0 95 5 0 94 6 0 93 7 0 92 8 0 91 9 0 90 9 0 90 10 0 89 11 0 88 11 0 88 12 0 87 13 0 86 13 0 86 13 0 86 14 0 85 14 0 85 15 0 84 15 0 84 15 0 84 15 0 84 15 0 84 16 0 83 16 0 83 16 0 83 16 0 83 16 0 83 16 0 83 16 0 83 16 0 83 16 0 83 16 0 83 16 0 83 16 0 83 16 0 83 16 0 83 15 0 84 15 0 84 15 0 84 15 0 84 15 0 84 14 0 85 14 0 85 13 0 86 13 0 86 13 0 86 12 0 87 11 0 88 11 0 88 10 0 89 9 0 90 9 0 90 8 0 91 7 0 92 6 0 93 5 0 94 4 0 95 3 0 96 2 0 97 1 0 98 0 0 100 
0 0 100 1 0 98 2 0 97 3 0 96 4 0 95 5 0 94 6 0 93 7 0 92 7 0 92 8 0 91 9 0 90 10 0 89 10 0 89 11 0 88 11 0 88 12 0 87 12 0 87 13 0 86 13 0 86 14 0 85 14 0 85 14 0 85 15 0 84 15 0 84 15 0 84 15 0 84 15 0 84 15 0 84 16 0 83 16 0 83 16 0 83 16 0 83 16 0 83 16 0 83 16 0 83 16 0 83 15 0 84 15 0 84 15 0 84 15 0 84 15 0 84 15 0 84 14 0 85 14 0 85 14 0 85 13 0 86 13 0 86 12 0 87 12 0 87 11 0 88 11 0 88 10 0 89 10 0 89 9 0 90 8 0 91 7 0 92 7 0 92 6 0 93 5 0 94 4 0 95 3 0 96 2 0 97 1 0 98 0 0 100 
0 0 100 1 0 98 2 0 97 3 0 96 3 0 96 4 0 95 5 0 94 6 0 93 7 0 92 8 0 91 9 0 90 9 0 90 10 0 89 10 0 89 11 0 88 12 0 87 12 0 87 12 0 87 13 0 86 13 0 86 14 0 85 14 0 85 14 0 85 14 0 85 15 0 84 15 0 84 15 0 84 15 0 84 15 0 84 15 0 84 15 0 84 15 0 84 15 0 84 15 0 84 15 0 84 15 0 84 15 0 84 15 0 84 15 0 84 15 0 84 14 0 85 14 0 85 14 0 85 14 0 85 13 0 86 13 0 86 12 0 87 12 0 87 12 0 87 11 0 88 10 0 89 10 0 89 9 0 90 9 0 90 8 0 91 7 0 92 6 0 93 5 0 94 4 0 95 3 0 96 3 0 96 2 0 97 1 0 98 0 0 100 
0 0 100 0 0 99 1 0 98 2 0 97 3 0 96 4 0 95 5 0 94 6 0 93 7 0 92 7 0 92 8 0 91 9 0 90 9 0 90 10 0 89 11 0 88 11 0 88 12 0 87 12 0 87 12 0 87 13 0 86 13 0 86 13 0 86 14 0 85 14 0 85 14 0 85 14 0 85 14 0 85 15 0 84 15 0 84 15 0 84 15 0 84 15 0 84 15 0 84 15 0 84 15 0 84 15 0 84 15 0 84 14 0 85 14 0 85 14 0 85 14 0 85 14 0 85 13 0 86 13 0 86 13 0 86 12 0 87 12 0 87 12 0 87 11 0 88 11 0 88 10 0 89 9 0 90 9 0 90 8 0 91 7 0 92 7 0 92 6 0 93 5 0 94 4 0 95 3 0 96 2 0 97 1 0 98 0 0 99 0 0 100 
0 0 100 0 0 99 1 0 98 2 0 97 3 0 96 4 0 95 5 0 94 6 0 93 6 0 93 7 0 92 8 0 91 8 0 91 9 0 90 10 0 89 10 0 89 11 0 88 11 0 88 12 0 87 12 0 87 12 0 87 13 0 86 13 0 86 13 0 86 14 0 85 14 0 85 14 0 85 14 0 85 14 0 85 14 0 85 14 0 85 14 0 85 15 0 84 15 0 84 14 0 85 14 0 85 14 0 85 14 0 85 14 0 85 14 0 85 14 0 85 14 0 85 13 0 86 13 0 86 13 0 86 12 0 87 12 0 87 12 0 87 11 0 88 11 0 88 10 0 89 10 0 89 9 0 90 8 0 91 8 0 91 7 0 92 6 0 93 6 0 93 5 0 94 4 0 95 3 0 96 2 0 97 1 0 98 0 0 99 0 0 100 
0 0 100 0 0 99 1 0 98 2 0 97 3 0 96 4 0 95 5 0 94 5 0 94 6 0 93 7 0 92 7 0 92 8 0 91 9 0 90 9 0 90 10 0 89 10 0 89 11 0 88 11 0 88 12 0 87 12 0 87 12 0 87 13 0 86 13 0 86 13 0 86 13 0 86 14 0 85 14 0 85 14 0 85 14 0 85 14 0 85 14 0 85 14 0 85 14 0 85 14 0 85 14 0 85 14 0 85 14 0 85 14 0 85 14 0 85 13 0 86 13 0 86 13 0 86 13 0 86 12 0 87 12 0 87 12 0 87 11 0 88 11 0 88 10 0 89 10 0 89 9 0 90 9 0 90 8 0 91 7 0 92 7 0 92 6 0 93 5 0 94 5 0 94 4 0 95 3 0 96 2 0 97 1 0 98 0 0 99 0 0 100 
0 0 100 0 0 99 1 0 98 2 0 97 3 0 96 4 0 95 4 0 95 5 0 94 6 0 93 7 0 92 7 0 92 8 0 91 8 0 91 9 0 90 9 0 90 10 0 89 10 0 89 11 0 88 11 0 88 12 0 87 12 0 87 12 0 87 13 0 86 13 0 86 13 0 86 13 0 86 13 0 86 14 0 85 14 0 85 14 0 85 14 0 85 14 0 85 14 0 85 14 0 85 14 0 85 14 0 85 14 0 85 13 0 86 13 0 86 13 0 86 13 0 86 13 0 86 12 0 87 12 0 87 12 0 87 11 0 88 11 0 88 10 0 89 10 0 89 9 0 90 9 0 90 8 0 91 8 0 91 7 0 92 7 0 92 6 0 93 5 0 94 4 0 95 4 0 95 3 0 96 2 0 97 1 0 98 0 0 99 0 0 100 
0 0 100 0 0 99 1 0 98 2 0 97 3 0 96 3 0 96 4 0 95 5 0 94 6 0 93 6 0 93 7 0 92 8 0 91 8 0 91 9 0 90 9 0 90 10 0 89 10 0 89 11 0 88 11 0 88 11 0 88 12 0 87 12 0 87 12 0 87 13 0 86 13 0 86 13 0 86 13 0 86 13 0 86 13 0 86 13 0 86 13 0 86 14 0 85 14 0 85 13 0 86 13 0 86 13 0 86 13 0 86 13 0 86 13 0 86 13 0 86 13 0 86 12 0 87 12 0 87 12 0 87 11 0 88 11 0 88 11 0 88 10 0 89 10 0 89 9 0 90 9 0 90 8 0 91 8 0 91 7 0 92 6 0 93 6 0 93 5 0 94 4 0 95 3 0 96 3 0 96 2 0 97 1 0 98 0 0 99 0 0 100 
0 0 100 0 0 99 1 0 98 2 0 97 3 0 96 3 0 96 4 0 95 5 0 94 5 0 94 6 0 93 7 0 92 7 0 92 8 0 91 8 0 91 9 0 90 9 0 90 10 0 89 10 0 89 11 0 88 11 0 88 11 0 88 12 0 87 12 0 87 12 0 87 12 0 87 13 0 86 13 0 86 13 0 86 13 0 86 13 0 86 13 0 86 13 0 86 13 0 86 13 0 86 13 0 86 13 0 86 13 0 86 13 0 86 13 0 86 12 0 87 12 0 87 12 0 87 12 0 87 11 0 88 11 0 88 11 0 88 10 0 89 10 0 89 9 0 90 9 0 90 8 0 91 8 0 91 7 0 92 7 0 92 6 0 93 5 0 94 5 0 94 4 0 95 3 0 96 3 0 96 2 0 97 1 0 98 0 0 99 0 0 100 
0 0 100 0 0 99 1 0 98 2 0 97 2 0 97 3 0 96 4 0 95 5 0 94 5 0 94 6 0 93 7 0 92 7 0 92 8 0 91 8 0 91 9 0 90 9 0 90 10 0 89 10 0 89 10 0 89 11 0 88 11 0 88 11 0 88 12 0 87 12 0 87 12 0 87 12 0 87 13 0 86 13 0 86 13 0 86 13 0 86 13 0 86 13 0 86 13 0 86 13 0 86 13 0 86 13 0 86 13 0 86 13 0 86 12 0 87 12 0 87 12 0 87 12 0 87 11 0 88 11 0 88 11 0 88 10 0 89 10 0 89 10 0 89 9 0 90 9 0 90 8 0 91 8 0 91 7 0 92 7 0 92 6 0 93 5 0 94 5 0 94 4 0 95 3 0 96 2 0 97 2 0 97 1 0 98 0 0 99 0 0 100 
0 0 100 0 0 99 1 0 98 2 0 97 2 0 97 3 0 96 4 0 95 4 0 95 5 0 94 6 0 93 6 0 93 7 0 92 7 0 92 8 0 91 9 0 90 9 0 90 9 0 90 10 0 89 10 0 89 11 0 88 11 0 88 11 0 88 12 0 87 12 0 87 12 0 87 12 0 87 12 0 87 12 0 87 13 0 86 13 0 86 13 0 86 13 0 86 13 0 86 13 0 86 13 0 86 13 0 86 12 0 87 12 0 87 12 0 87 12 0 87 12 0 87 12 0 87 11 0 88 11 0 88 11 0 88 10 0 89 10 0 89 9 0 90 9 0 90 9 0 90 8 0 91 7 0 92 7 0 92 6 0 93 6 0 93 5 0 94 4 0 95 4 0 95 3 0 96 2 0 97 2 0 97 1 0 98 0 0 99 0 0 100 
0 0 100 0 0 99 1 0 98 2 0 97 2 0 97 3 0 96 4 0 95 4 0 95 5 0 94 6 0 93 6 0 93 7 0 92 7 0 92 8 0 91 8 0 91 9 0 90 9 0 90 10 0 89 10 0 89 10 0 89 11 0 88 11 0 88 11 0 88 12 0 87 12 0 87 12 0 87 12 0 87 12 0 87 12 0 87 12 0 87 13 0 86 13 0 86 13 0 86 13 0 86 12 0 87 12 0 87 12 0 87 12 0 87 12 0 87 12 0 87 12 0 87 11 0 88 11 0 88 11 0 88 10 0 89 10 0 89 10 0 89 9 0 90 9 0 90 8 0 91 8 0 91 7 0 92 7 0 92 6 0 93 6 0 93 5 0 94 4 0 95 4 0 95 3 0 96 2 0 97 2 0 97 1 0 98 0 0 99 0 0 100 
0 0 100 0 0 99 1 0 98 2 0 97 2 0 97 3 0 96 4 0 95 4 0 95 5 0 94 5 0 94 6 0 93 7 0 92 7 0 92 8 0 91 8 0 91 9 0 90 9 0 90 10 0 89 10 0 89 10 0 89 11 0 88 11 0 88 11 0 88 11 0 88 12 0 87 12 0 87 12 0 87 12 0 87 12 0 87 12 0 87 12 0 87 12 0 87 12 0 87 12 0 87 12 0 87 12 0 87 12 0 87 12 0 87 12 0 87 12 0 87 11 0 88 11 0 88 11 0 88 11 0 88 10 0 89 10 0 89 10 0 89 9 0 90 9 0 90 8 0 91 8 0 91 7 0 92 7 0 92 6 0 93 5 0 94 5 0 94 4 0 95 4 0 95 3 0 96 2 0 97 2 0 97 1 0 98 0 0 99 0 0 100 
0 0 100 0 0 99 1 0 98 2 0 97 2 0 97 3 0 96 4 0 95 4 0 95 5 0 94 5 0 94 6 0 93 7 0 92 7 0 92 8 0 91 8 0 91 9 0 90 9 0 90 9 0 90 10 0 89 10 0 89 10 0 89 11 0 88 11 0 88 11 0 88 12 0 87 12 0 87 12 0 87 12 0 87 12 0 87 12 0 87 12 0 87 12 0 87 12 0 87 12 0 87 12 0 87 12 0 87 12 0 87 12 0 87 12 0 87 12 0 87 11 0 88 11 0 88 11 0 88 10 0 89 10 0 89 10 0 89 9 0 90 9 0 90 9 0 90 8 0 91 8 0 91 7 0 92 7 0 92 6 0 93 5 0 94 5 0 94 4 0 95 4 0 95 3 0 96 2 0 97 2 0 97 1 0 98 0 0 99 0 0 100 
0 0 100 0 0 99 1 0 98 2 0 97 2 0 97 3 0 96 3 0 96 4 0 95 5 0 94 5 0 94 6 0 93 6 0 93 7 0 92 7 0 92 8 0 91 8 0 91 9 0 90 9 0 90 10 0 89 10 0 89 10 0 89 11 0 88 11 0 88 11 0 88 11 0 88 12 0 87 12 0 87 12 0 87 12 0 87 12 0 87 12 0 87 12 0 87 12 0 87 12 0 87 12 0 87 12 0 87 12 0 87 12 0 87 12 0 87 11 0 88 11 0 88 11 0 88 11 0 88 10 0 89 10 0 89 10 0 89 9 0 90 9 0 90 8 0 91 8 0 91 7 0 92 7 0 92 6 0 93 6 0 93 5 0 94 5 0 94 4 0 95 3 0 96 3 0 96 2 0 97 2 0 97 1 0 98 0 0 99 0 0 100 
0 0 100 0 0 99 1 0 98 1 0 98 2 0 97 3 0 96 3 0 96 4 0 95 5 0 94 5 0 94 6 0 93 6 0 93 7 0 92 7 0 92 8 0 91 8 0 91 9 0 90 9 0 90 10 0 89 10 0 89 10 0 89 11 0 88 11 0 88 11 0 88 11 0 88 12 0 87 12 0 87 12 0 87 12 0 87 12 0 87 12 0 87 12 0 87 12 0 87 12 0 87 12 0 87 12 0 87 12 0 87 12 0 87 12 0 87 11 0 88 11 0 88 11 0 88 11 0 88 10 0 89 10 0 89 10 0 89 9 0 90 9 0 90 8 0 91 8 0 91 7 0 92 7 0 92 6 0 93 6 0 93 5 0 94 5 0 94 4 0 95 3 0 96 3 0 96 2 0 97 1 0 98 1 0 98 0 0 99 0 0 100 
0 0 100 0 0 99 1 0 98 1 0 98 2 0 97 3 0 96 3 0 96 4 0 95 5 0 94 5 0 94 6 0 93 6 0 93 7 0 92 7 0 92 8 0 91 8 0 91 9 0 90 9 0 90 10 0 89 10 0 89 10 0 89 11 0 88 11 0 88 11 0 88 11 0 88 11 0 88 12 0 87 12 0 87 12 0 87 12 0 87 12 0 87 12 0 87 12 0 87 12 0 87 12 0 87 12 0 87 12 0 87 12 0 87 11 0 88 11 0 88 11 0 88 11 0 88 11 0 88 10 0 89 10 0 89 10 0 89 9 0 90 9 0 90 8 0 91 8 0 91 7 0 92 7 0 92 6 0 93 6 0 93 5 0 94 5 0 94 4 0 95 3 0 96 3 0 96 2 0 97 1 0 98 1 0 98 0 0 99 0 0 100 
0 0 100 0 0 99 1 0 98 1 0 98 2 0 97 3 0 96 3 0 96 4 0 95 5 0 94 5 0 94 6 0 93 6 0 93 7 0 92 7 0 92 8 0 91 8 0 91 9 0 90 9 0 90 10 0 89 10 0 89 10 0 89 10 0 89 11 0 88 11 0 88 11 0 88 11 0 88 12 0 87 12 0 87 12 0 87 12 0 87 12 0 87 12 0 87 12 0 87 12 0 87 12 0 87 12 0 87 12 0 87 12 0 87 11 0 88 11 0 88 11 0 88 11 0 88 10 0 89 10 0 89 10 0 89 10 0 89 9 0 90 9 0 90 8 0 91 8 0 91 7 0 92 7 0 92 6 0 93 6 0 93 5 0 94 5 0 94 4 0 95 3 0 96 3 0 96 2 0 97 1 0 98 1 0 98 0 0 99 0 0 100 
0 0 100 0 0 99 1 0 98 1 0 98 2 0 97 3 0 96 3 0 96 4 0 95 5 0 94 5 0 94 6 0 93 6 0 93 7 0 92 7 0 92 8 0 91 8 0 91 9 0 90 9 0 90 10 0 89 10 0 89 10 0 89 10 0 89 11 0 88 11 0 88 11 0 88 11 0 88 12 0 87 12 0 87 12 0 87 12 0 87 12 0 87 12 0 87 12 0 87 12 0 87 12 0 87 12 0 87 12 0 87 12 0 87 11 0 88 11 0 88 11 0 88 11 0 88 10 0 89 10 0 89 10 0 89 10 0 89 9 0 90 9 0 90 8 0 91 8 0 91 7 0 92 7 0 92 6 0 93 6 0 93 5 0 94 5 0 94 4 0 95 3 0 96 3 0 96 2 0 97 1 0 98 1 0 98 0 0 99 0 0 100 
0 0 100 0 0 99 1 0 98 1 0 98 2 0 97 3 0 96 3 0 96 4 0 95 5 0 94 5 0 94 6 0 93 6 0 93 7 0 92 7 0 92 8 0 91 8 0 91 9 0 90 9 0 90 10 0 89 10 0 89 10 0 89 11 0 88 11 0 88 11 0 88 11 0 88 11 0 88 12 0 87 12 0 87 12 0 87 12 0 87 12 0 87 12 0 87 12 0 87 12 0 87 12 0 87 12 0 87 12 0 87 12 0 87 11 0 88 11 0 88 11 0 88 11 0 88 11 0 88 10 0 89 10 0 89 10 0 89 9 0 90 9 0 90 8 0 91 8 0 91 7 0 92 7 0 92 6 0 93 6 0 93 5 0 94 5 0 94 4 0 95 3 0 96 3 0 96 2 0 97 1 0 98 1 0 98 0 0 99 0 0 100 
0 0 100 0 0 99 1 0 98 1 0 98 2 0 97 3 0 96 3 0 96 4 0 95 5 0 94 5 0 94 6 0 93 6 0 93 7 0 92 7 0 92 8 0 91 8 0 91 9 0 90 9 0 90 10 0 89 10 0 89 10 0 89 11 0 88 11 0 88 11 0 88 11 0 88 12 0 87 12 0 87 12 0 87 12 0 87 12 0 87 12 0 87 12 0 87 12 0 87 12 0 87 12 0 87 12 0 87 12 0 87 12 0 87 12 0 87 11 0 88 11 0 88 11 0 88 11 0 88 10 0 89 10 0 89 10 0 89 9 0 90 9 0 90 8 0 91 8 0 91 7 0 92 7 0 92 6 0 93 6 0 93 5 0 94 5 0 94 4 0 95 3 0 96 3 0 96 2 0 97 1 0 98 1 0 98 0 0 99 0 0 100 
0 0 100 0 0 99 1 0 98 2 0 97 2 0 97 3 0 96 3 0 96 4 0 95 5 0 94 5 0 94 6 0 93 6 0 93 7 0 92 7 0 92 8 0 91 8 0 91 9 0 90 9 0 90 10 0 89 10 0 89 10 0 89 11 0 88 11 0 88 11 0 88 11 0 88 12 0 87 12 0 87 12 0 87 12 0 87 12 0 87 12 0 87 12 0 87 12 0 87 12 0 87 12 0 87 12 0 87 12 0 87 12 0 87 12 0 87 11 0 88 11 0 88 11 0 88 11 0 88 10 0 89 10 0 89 10 0 89 9 0 90 9 0 90 8 0 91 8 0 91 7 0 92 7 0 92 6 0 93 6 0 93 5 0 94 5 0 94 4 0 95 3 0 96 3 0 96 2 0 97 2 0 97 1 0 98 0 0 99 0 0 100 
0 0 100 0 0 99 1 0 98 2 0 97 2 0 97 3 0 96 4 0 95 4 0 95 5 0 94 5 0 94 6 0 93 7 0 92 7 0 92 8 0 91 8 0 91 9 0 90 9 0 90 9 0 90 10 0 89 10 0 89 10 0 89 11 0 88 11 0 88 11 0 88 12 0 87 12 0 87 12 0 87 12 0 87 12 0 87 12 0 87 12 0 87 12 0 87 12 0 87 12 0 87 12 0 87 12 0 87 12 0 87 12 0 87 12 0 87 12 0 87 11 0 88 11 0 88 11 0 88 10 0 89 10 0 89 10 0 89 9 0 90 9 0 90 9 0 90 8 0 91 8 0 91 7 0 92 7 0 92 6 0 93 5 0 94 5 0 94 4 0 95 4 0 95 3 0 96 2 0 97 2 0 97 1 0 98 0 0 99 0 0 100 
0 0 100 0 0 99 1 0 98 2 0 97 2 0 97 3 0 96 4 0 95 4 0 95 5 0 94 5 0 94 6 0 93 7 0 92 7 0 92 8 0 91 8 0 91 9 0 90 9 0 90 10 0 89 10 0 89 10 0 89 11 0 88 11 0 88 11 0 88 11 0 88 12 0 87 12 0 87 12 0 87 12 0 87 12 0 87 12 0 87 12 0 87 12 0 87 12 0 87 12 0 87 12 0 87 12 0 87 12 0 87 12 0 87 12 0 87 12 0 87 11 0 88 11 0 88 11 0 88 11 0 88 10 0 89 10 0 89 10 0 89 9 0 90 9 0 90 8 0 91 8 0 91 7 0 92 7 0 92 6 0 93 5 0 94 5 0 94 4 0 95 4 0 95 3 0 96 2 0 97 2 0 97 1 0 98 0 0 99 0 0 100 
0 0 100 0 0 99 1 0 98 2 0 97 2 0 97 3 0 96 4 0 95 4 0 95 5 0 94 6 0 93 6 0 93 7 0 92 7 0 92 8 0 91 8 0 91 9 0 90 9 0 90 10 0 89 10 0 89 10 0 89 11 0 88 11 0 88 11 0 88 12 0 87 12 0 87 12 0 87 12 0 87 12 0 87 12 0 87 12 0 87 13 0 86 13 0 86 13 0 86 13 0 86 12 0 87 12 0 87 12 0 87 12 0 87 12 0 87 12 0 87 12 0 87 11 0 88 11 0 88 11 0 88 10 0 89 10 0 89 10 0 89 9 0 90 9 0 90 8 0 91 8 0 91 7 0 92 7 0 92 6 0 93 6 0 93 5 0 94 4 0 95 4 0 95 3 0 96 2 0 97 2 0 97 1 0 98 0 0 99 0 0 100 
0 0 100 0 0 99 1 0 98 2 0 97 2 0 97 3 0 96 4 0 95 4 0 95 5 0 94 6 0 93 6 0 93 7 0 92 7 0 92 8 0 91 9 0 90 9 0 90 9 0 90 10 0 89 10 0 89 11 0 88 11 0 88 11 0 88 12 0 87 12 0 87 12 0 87 12 0 87 12 0 87 12 0 87 13 0 86 13 0 86 13 0 86 13 0 86 13 0 86 13 0 86 13 0 86 13 0 86 12 0 87 12 0 87 12 0 87 12 0 87 12 0 87 12 0 87 11 0 88 11 0 88 11 0 88 10 0 89 10 0 89 9 0 90 9 0 90 9 0 90 8 0 91 7 0 92 7 0 92 6 0 93 6 0 93 5 0 94 4 0 95 4 0 95 3 0 96 2 0 97 2 0 97 1 0 98 0 0 99 0 0 100 
0 0 100 0 0 99 1 0 98 2 0 97 2 0 97 3 0 96 4 0 95 5 0 94 5 0 94 6 0 93 7 0 92 7 0 92 8 0 91 8 0 91 9 0 90 9 0 90 10 0 89 10 0 89 10 0 89 11 0 88 11 0 88 11 0 88 12 0 87 12 0 87 12 0 87 12 0 87 13 0 86 13 0 86 13 0 86 13 0 86 13 0 86 13 0 86 13 0 86 13 0 86 13 0 86 13 0 86 13 0 86 13 0 86 12 0 87 12 0 87 12 0 87 12 0 87 11 0 88 11 0 88 11 0 88 10 0 89 10 0 89 10 0 89 9 0 90 9 0 90 8 0 91 8 0 91 7 0 92 7 0 92 6 0 93 5 0 94 5 0 94 4 0 95 3 0 96 2 0 97 2 0 97 1 0 98 0 0 99 0 0 100 
0 0 100 0 0 99 1 0 98 2 0 97 3 0 96 3 0 96 4 0 95 5 0 94 5 0 94 6 0 93 7 0 92 7 0 92 8 0 91 8 0 91 9 0 90 9 0 90 10 0 89 10 0 89 11 0 88 11 0 88 11 0 88 12 0 87 12 0 87 12 0 87 12 0 87 13 0 86 13 0 86 13 0 86 13 0 86 13 0 86 13 0 86 13 0 86 13 0 86 13 0 86 13 0 86 13 0 86 13 0 86 13 0 86 13 0 86 12 0 87 12 0 87 12 0 87 12 0 87 11 0 88 11 0 88 11 0 88 10 0 89 10 0 89 9 0 90 9 0 90 8 0 91 8 0 91 7 0 92 7 0 92 6 0 93 5 0 94 5 0 94 4 0 95 3 0 96 3 0 96 2 0 97 1 0 98 0 0 99 0 0 100 
0 0 100 0 0 99 1 0 98 2 0 97 3 0 96 3 0 96 4 0 95 5 0 94 6 0 93 6 0 93 7 0 92 8 0 91 8 0 91 9 0 90 9 0 90 10 0 89 10 0 89 11 0 88 11 0 88 11 0 88 12 0 87 12 0 87 12 0 87 13 0 86 13 0 86 13 0 86 13 0 86 13 0 86 13 0 86 13 0 86 13 0 86 14 0 85 14 0 85 13 0 86 13 0 86 13 0 86 13 0 86 13 0 86 13 0 86 13 0 86 13 0 86 12 0 87 12 0 87 12 0 87 11 0 88 11 0 88 11 0 88 10 0 89 10 0 89 9 0 90 9 0 90 8 0 91 8 0 91 7 0 92 6 0 93 6 0 93 5 0 94 4 0 95 3 0 96 3 0 96 2 0 97 1 0 98 0 0 99 0 0 100 
0 0 100 0 0 99 1 0 98 2 0 97 3 0 96 4 0 95 4 0 95 5 0 94 6 0 93 7 0 92 7 0 92 8 0 91 8 0 91 9 0 90 9 0 90 10 0 89 10 0 89 11 0 88 11 0 88 12 0 87 12 0 87 12 0 87 13 0 86 13 0 86 13 0 86 13 0 86 13 0 86 14 0 85 14 0 85 14 0 85 14 0 85 14 0 85 14 0 85 14 0 85 14 0 85 14 0 85 14 0 85 13 0 86 13 0 86 13 0 86 13 0 86 13 0 86 12 0 87 12 0 87 12 0 87 11 0 88 11 0 88 10 0 89 10 0 89 9 0 90 9 0 90 8 0 91 8 0 91 7 0 92 7 0 92 6 0 93 5 0 94 4 0 95 4 0 95 3 0 96 2 0 97 1 0 98 0 0 99 0 0 100 
0 0 100 0 0 99 1 0 98 2 0 97 3 0 96 4 0 95 5 0 94 5 0 94 6 0 93 7 0 92 7 0 92 8 0 91 9 0 90 9 0 90 10 0 89 10 0 89 11 0 88 11 0 88 12 0 87 12 0 87 12 0 87 13 0 86 13 0 86 13 0 86 13 0 86 14 0 85 14 0 85 14 0 85 14 0 85 14 0 85 14 0 85 14 0 85 14 0 85 14 0 85 14 0 85 14 0 85 14 0 85 14 0 85 14 0 85 13 0 86 13 0 86 13 0 86 13 0 86 12 0 87 12 0 87 12 0 87 11 0 88 11 0 88 10 0 89 10 0 89 9 0 90 9 0 90 8 0 91 7 0 92 7 0 92 6 0 93 5 0 94 5 0 94 4 0 95 3 0 96 2 0 97 1 0 98 0 0 99 0 0 100 
0 0 100 0 0 99 1 0 98 2 0 97 3 0 96 4 0 95 5 0 94 6 0 93 6 0 93 7 0 92 8 0 91 8 0 91 9 0 90 10 0 89 10 0 89 11 0 88 11 0 88 12 0 87 12 0 87 12 0 87 13 0 86 13 0 86 13 0 86 14 0 85 14 0 85 14 0 85 14 0 85 14 0 85 14 0 85 14 0 85 14 0 85 15 0 84 15 0 84 14 0 85 14 0 85 14 0 85 14 0 85 14 0 85 14 0 85 14 0 85 14 0 85 13 0 86 13 0 86 13 0 86 12 0 87 12 0 87 12 0 87 11 0 88 11 0 88 10 0 89 10 0 89 9 0 90 8 0 91 8 0 91 7 0 92 6 0 93 6 0 93 5 0 94 4 0 95 3 0 96 2 0 97 1 0 98 0 0 99 0 0 100 
0 0 100 0 0 99 1 0 98 2 0 97 3 0 96 4 0 95 5 0 94 6 0 93 7 0 92 7 0 92 8 0 91 9 0 90 9 0 90 10 0 89 11 0 88 11 0 88 12 0 87 12 0 87 12 0 87 13 0 86 13 0 86 13 0 86 14 0 85 14 0 85 14 0 85 14 0 85 14 0 85 15 0 84 15 0 84 15 0 84 15 0 84 15 0 84 15 0 84 15 0 84 15 0 84 15 0 84 15 0 84 14 0 85 14 0 85 14 0 85 14 0 85 14 0 85 13 0 86 13 0 86 13 0 86 12 0 87 12 0 87 12 0 87 11 0 88 11 0 88 10 0 89 9 0 90 9 0 90 8 0 91 7 0 92 7 0 92 6 0 93 5 0 94 4 0 95 3 0 96 2 0 97 1 0 98 0 0 99 0 0 100 
0 0 100 1 0 98 2 0 97 3 0 96 3 0 96 4 0 95 5 0 94 6 0 93 7 0 92 8 0 91 9 0 90 9 0 90 10 0 89 10 0 89 11 0 88 12 0 87 12 0 87 12 0 87 13 0 86 13 0 86 14 0 85 14 0 85 14 0 85 14 0 85 15 0 84 15 0 84 15 0 84 15 0 84 15 0 84 15 0 84 15 0 84 15 0 84 15 0 84 15 0 84 15 0 84 15 0 84 15 0 84 15 0 84 15 0 84 15 0 84 14 0 85 14 0 85 14 0 85 14 0 85 13 0 86 13 0 86 12 0 87 12 0 87 12 0 87 11 0 88 10 0 89 10 0 89 9 0 90 9 0 90 8 0 91 7 0 92 6 0 93 5 0 94 4 0 95 3 0 96 3 0 96 2 0 97 1 0 98 0 0 100 
0 0 100 1 0 98 2 0 97 3 0 96 4 0 95 5 0 94 6 0 93 7 0 92 7 0 92 8 0 91 9 0 90 10 0 89 10 0 89 11 0 88 11 0 88 12 0 87 12 0 87 13 0 86 13 0 86 14 0 85 14 0 85 14 0 85 15 0 84 15 0 84 15 0 84 15 0 84 15 0 84 15 0 84 16 0 83 16 0 83 16 0 83 16 0 83 16 0 83 16 0 83 16 0 83 16 0 83 15 0 84 15 0 84 15 0 84 15 0 84 15 0 84 15 0 84 14 0 85 14 0 85 14 0 85 13 0 86 13 0 86 12 0 87 12 0 87 11 0 88 11 0 88 10 0 89 10 0 89 9 0 90 8 0 91 7 0 92 7 0 92 6 0 93 5 0 94 4 0 95 3 0 96 2 0 97 1 0 98 0 0 100 
0 0 100 1 0 98 2 0 97 3 0 96 4 0 95 5 0 94 6 0 93 7 0 92 8 0 91 9 0 90 9 0 90 10 0 89 11 0 88 11 0 88 12 0 87 13 0 86 13 0 86 13 0 86 14 0 85 14 0 85 15 0 84 15 0 84 15 0 84 15 0 84 15 0 84 16 0 83 16 0 83 16 0 83 16 0 83 16 0 83 16 0 83 16 0 83 16 0 83 16 0 83 16 0 83 16 0 83 16 0 83 16 0 83 16 0 83 15 0 84 15 0 84 15 0 84 15 0 84 15 0 84 14 0 85 14 0 85 13 0 86 13 0 86 13 0 86 12 0 87 11 0 88 11 0 88 10 0 89 9 0 90 9 0 90 8 0 91 7 0 92 6 0 93 5 0 94 4 0 95 3 0 96 2 0 97 1 0 98 0 0 100 
0 0 100 1 0 98 2 0 97 3 0 96 4 0 95 5 0 94 6 0 93 7 0 92 8 0 91 9 0 90 10 0 89 11 0 88 11 0 88 12 0 87 13 0 86 13 0 86 14 0 85 14 0 85 14 0 85 15 0 84 15 0 84 15 0 84 16 0 83 16 0 83 16 0 83 16 0 83 16 0 83 16 0 83 17 0 82 17 0 82 17 0 82 17 0 82 17 0 82 17 0 82 17 0 82 17 0 82 16 0 83 16 0 83 16 0 83 16 0 83 16 0 83 16 0 83 15 0 84 15 0 84 15 0 84 14 0 85 14 0 85 14 0 85 13 0 86 13 0 86 12 0 87 11 0 88 11 0 88 10 0 89 9 0 90 8 0 91 7 0 92 6 0 93 5 0 94 4 0 95 3 0 96 2 0 97 1 0 98 0 0 100 
0 0 100 1 0 98 2 0 97 3 0 96 5 0 94 6 0 93 7 0 92 8 0 91 9 0 90 10 0 89 11 0 88 11 0 88 12 0 87 13 0 86 13 0 86 14 0 85 14 0 85 15 0 84 15 0 84 15 0 84 16 0 83 16 0 83 16 0 83 16 0 83 17 0 82 17 0 82 17 0 82 17 0 82 17 0 82 17 0 82 17 0 82 17 0 82 17 0 82 17 0 82 17 0 82 17 0 82 17 0 82 17 0 82 17 0 82 17 0 82 16 0 83 16 0 83 16 0 83 16 0 83 15 0 84 15 0 84 15 0 84 14 0 85 14 0 85 13 0 86 13 0 86 12 0 87 11 0 88 11 0 88 10 0 89 9 0 90 8 0 91 7 0 92 6 0 93 5 0 94 3 0 96 2 0 97 1 0 98 0 0 100 
0 0 100 1 0 98 2 0 97 4 0 95 5 0 94 6 0 93 7 0 92 9 0 90 10 0 89 10 0 89 11 0 88 12 0 87 13 0 86 13 0 86 14 0 85 14 0 85 15 0 84 15 0 84 16 0 83 16 0 83 16 0 83 16 0 83 17 0 82 17 0 82 17 0 82 17 0 82 17 0 82 17 0 82 18 0 81 18 0 81 18 0 81 18 0 81 18 0 81 18 0 81 18 0 81 18 0 81 17 0 82 17 0 82 17 0 82 17 0 82 17 0 82 17 0 82 16 0 83 16 0 83 16 0 83 16 0 83 15 0 84 15 0 84 14 0 85 14 0 85 13 0 86 13 0 86 12 0 87 11 0 88 10 0 89 10 0 89 9 0 90 7 0 92 6 0 93 5 0 94 4 0 95 2 0 97 1 0 98 0 0 100 
0 0 100 1 0 98 3 0 96 4 0 95 6 0 93 7 0 92 8 0 91 9 0 90 10 0 89 11 0 88 12 0 87 13 0 86 13 0 86 14 0 85 15 0 84 15 0 84 15 0 84 16 0 83 16 0 83 17 0 82 17 0 82 17 0 82 17 0 82 18 0 81 18 0 81 18 0 81 18 0 81 18 0 81 18 0 81 18 0 81 18 0 81 18 0 81 18 0 81 18 0 81 18 0 81 18 0 81 18 0 81 18 0 81 18 0 81 18 0 81 18 0 81 17 0 82 17 0 82 17 0 82 17 0 82 16 0 83 16 0 83 15 0 84 15 0 84 15 0 84 14 0 85 13 0 86 13 0 86 12 0 87 11 0 88 10 0 89 9 0 90 8 0 91 7 0 92 6 0 93 4 0 95 3 0 96 1 0 98 0 0 100 
0 0 100 1 0 98 3 0 96 5 0 94 6 0 93 8 0 91 9 0 90 10 0 89 11 0 88 12 0 87 13 0 86 14 0 85 14 0 85 15 0 84 15 0 84 16 0 83 16 0 83 17 0 82 17 0 82 17 0 82 17 0 82 18 0 81 18 0 81 18 0 81 18 0 81 18 0 81 19 0 80 19 0 80 19 0 80 19 0 80 19 0 80 19 0 80 19 0 80 19 0 80 19 0 80 19 0 80 19 0 80 19 0 80 18 0 81 18 0 81 18 0 81 18 0 81 18 0 81 17 0 82 17 0 82 17 0 82 17 0 82 16 0 83 16 0 83 15 0 84 15 0 84 14 0 85 14 0 85 13 0 86 12 0 87 11 0 88 10 0 89 9 0 90 8 0 91 6 0 93 5 0 94 3 0 96 1 0 98 0 0 100 
0 0 100 1 0 98 3 0 96 5 0 94 7 0 92 8 0 91 10 0 89 11 0 88 12 0 87 13 0 86 14 0 85 14 0 85 15 0 84 16 0 83 16 0 83 17 0 82 17 0 82 17 0 82 18 0 81 18 0 81 18 0 81 18 0 81 19 0 80 19 0 80 19 0 80 19 0 80 19 0 80 19 0 80 19 0 80 19 0 80 19 0 80 19 0 80 19 0 80 19 0 80 19 0 80 19 0 80 19 0 80 19 0 80 19 0 80 19 0 80 19 0 80 19 0 80 18 0 81 18 0 81 18 0 81 18 0 81 17 0 82 17 0 82 17 0 82 16 0 83 16 0 83 15 0 84 14 0 85 14 0 85 13 0 86 12 0 87 11 0 88 10 0 89 8 0 91 7 0 92 5 0 94 3 0 96 1 0 98 0 0 100 
0 0 100 2 0 97 4 0 95 6 0 93 8 0 91 9 0 90 11 0 88 12 0 87 13 0 86 14 0 85 15 0 84 15 0 84 16 0 83 17 0 82 17 0 82 17 0 82 18 0 81 18 0 81 18 0 81 19 0 80 19 0 80 19 0 80 19 0 80 19 0 80 20 0 79 20 0 79 20 0 79 20 0 79 20 0 79 20 0 79 20 0 79 20 0 79 20 0 79 20 0 79 20 0 79 20 0 79 20 0 79 20 0 79 20 0 79 20 0 79 19 0 80 19 0 80 19 0 80 19 0 80 19 0 80 18 0 81 18 0 81 18 0 81 17 0 82 17 0 82 17 0 82 16 0 83 15 0 84 15 0 84 14 0 85 13 0 86 12 0 87 11 0 88 9 0 90 8 0 91 6 0 93 4 0 95 2 0 97 0 0 100 
0 0 100 2 0 97 5 0 94 7 0 92 9 0 90 11 0 88 12 0 87 13 0 86 14 0 85 15 0 84 16 0 83 17 0 82 17 0 82 18 0 81 18 0 81 18 0 81 19 0 80 19 0 80 19 0 80 19 0 80 20 0 79 20 0 79 20 0 79 20 0 79 20 0 79 20 0 79 20 0 79 20 0 79 21 0 78 21 0 78 21 0 78 21 0 78 21 0 78 21 0 78 21 0 78 21 0 78 20 0 79 20 0 79 20 0 79 20 0 79 20 0 79 20 0 79 20 0 79 20 0 79 19 0 80 19 0 80 19 0 80 19 0 80 18 0 81 18 0 81 18 0 81 17 0 82 17 0 82 16 0 83 15 0 84 14 0 85 13 0 86 12 0 87 11 0 88 9 0 90 7 0 92 5 0 94 2 0 97 0 0 100 
0 0 100 3 0 96 6 0 93 8 0 91 10 0 89 12 0 87 13 0 86 15 0 84 16 0 83 16 0 83 17 0 82 18 0 81 18 0 81 19 0 80 19 0 80 19 0 80 20 0 79 20 0 79 20 0 79 20 0 79 20 0 79 21 0 78 21 0 78 21 0 78 21 0 78 21 0 78 21 0 78 21 0 78 21 0 78 21 0 78 21 0 78 21 0 78 21 0 78 21 0 78 21 0 78 21 0 78 21 0 78 21 0 78 21 0 78 21 0 78 21 0 78 21 0 78 21 0 78 20 0 79 20 0 79 20 0 79 20 0 79 20 0 79 19 0 80 19 0 80 19 0 80 18 0 81 18 0 81 17 0 82 16 0 83 16 0 83 15 0 84 13 0 86 12 0 87 10 0 89 8 0 91 6 0 93 3 0 96 0 0 100 
0 0 100 3 0 96 7 0 92 10 0 89 12 0 87 14 0 85 15 0 84 16 0 83 17 0 82 18 0 81 18 0 81 19 0 80 19 0 80 20 0 79 20 0 79 20 0 79 21 0 78 21 0 78 21 0 78 21 0 78 21 0 78 21 0 78 21 0 78 22 0 77 22 0 77 22 0 77 22 0 77 22 0 77 22 0 77 22 0 77 22 0 77 22 0 77 22 0 77 22 0 77 22 0 77 22 0 77 22 0 77 22 0 77 22 0 77 22 0 77 22 0 77 21 0 78 21 0 78 21 0 78 21 0 78 21 0 78 21 0 78 21 0 78 20 0 79 20 0 79 20 0 79 19 0 80 19 0 80 18 0 81 18 0 81 17 0 82 16 0 83 15 0 84 14 0 85 12 0 87 10 0 89 7 0 92 3 0 96 0 0 100 
0 0 100 5 0 94 9 0 90 12 0 87 14 0 85 16 0 83 17 0 82 18 0 81 19 0 80 19 0 80 20 0 79 20 0 79 21 0 78 21 0 78 21 0 78 21 0 78 22 0 77 22 0 77 22 0 77 22 0 77 22 0 77 22 0 77 22 0 77 22 0 77 22 0 77 22 0 77 22 0 77 23 0 76 23 0 76 23 0 76 23 0 76 23 0 76 23 0 76 23 0 76 23 0 76 23 0 76 23 0 76 22 0 77 22 0 77 22 0 77 22 0 77 22 0 77 22 0 77 22 0 77 22 0 77 22 0 77 22 0 77 22 0 77 21 0 78 21 0 78 21 0 78 21 0 78 20 0 79 20 0 79 19 0 80 19 0 80 18 0 81 17 0 82 16 0 83 14 0 85 12 0 87 9 0 90 5 0 94 0 0 100 
0 0 100 6 0 93 12 0 87 15 0 84 17 0 82 18 0 81 19 0 80 20 0 79 20 0 79 21 0 78 21 0 78 21 0 78 21 0 78 22 0 77 22 0 77 22 0 77 22 0 77 22 0 77 22 0 77 22 0 77 22 0 77 22 0 77 23 0 76 23 0 76 23 0 76 23 0 76 23 0 76 23 0 76 23 0 76 23 0 76 23 0 76 23 0 76 23 0 76 23 0 76 23 0 76 23 0 76 23 0 76 23 0 76 23 0 76 23 0 76 23 0 76 23 0 76 22 0 77 22 0 77 22 0 77 22 0 77 22 0 77 22 0 77 22 0 77 22 0 77 22 0 77 21 0 78 21 0 78 21 0 78 21 0 78 20 0 79 20 0 79 19 0 80 18 0 81 17 0 82 15 0 84 12 0 87 6 0 93 0 0 100 
0 0 100 16 0 83 20 0 79 22 0 77 24 0 75 24 0 75 25 0 74 25 0 74 26 0 73 26 0 73 26 0 73 26 0 73 26 0 73 26 0 73 27 0 72 27 0 72 27 0 72 27 0 72 27 0 72 27 0 72 27 0 72 27 0 72 27 0 72 27 0 72 27 0 72 27 0 72 27 0 72 27 0 72 27 0 72 27 0 72 27 0 72 27 0 72 27 0 72 27 0 72 27 0 72 27 0 72 27 0 72 27 0 72 27 0 72 27 0 72 27 0 72 27 0 72 27 0 72 27 0 72 27 0 72 27 0 72 27 0 72 27 0 72 27 0 72 27 0 72 26 0 73 26 0 73 26 0 73 26 0 73 26 0 73 26 0 73 25 0 74 25 0 74 24 0 75 24 0 75 22 0 77 20 0 79 16 0 83 0 0 100 
0 0 100 0 0 100 0 0 100 0 0 100 0 0 100 0 0 100 0 0 100 0 0 100 0 0 100 0 0 100 0 0 100 0 0 100 0 0 100 0 0 100 0 0 100 0 0 100 0 0 100 0 0 100 0 0 100 0 0 100 0 0 100 0 0 100 0 0 100 0 0 100 0 0 100 0 0 100 0 0 100 0 0 100 0 0 100 0 0 100 0 0 100 0 0 100 0 0 100 0 0 100 0 0 100 0 0 100 0 0 100 0 0 100 0 0 100 0 0 100 0 0 100 0 0 100 0 0 100 0 0 100 0 0 100 0 0 100 0 0 100 0 0 100 0 0 100 0 0 100 0 0 100 0 0 100 0 0 100 0 0 100 0 0 100 0 0 100 0 0 100 0 0 100 0 0 100 0 0 100 0 0 100 0 0 100 0 0 100 0 0 100 
